src/assets/pizza.svg

<svg width="70" height="70" viewBox="0 0 70 70" fill="none" xmlns="http://www.w3.org/2000/svg">
<path d="M26.2506 32.0543C27.0241 32.0543 27.766 31.747 28.313 31.2C28.86 30.653 29.1673 29.9112 29.1673 29.1376C29.1673 28.3641 28.86 27.6222 28.313 27.0752C27.766 26.5282 27.0241 26.221 26.2506 26.221C25.4771 26.221 24.7352 26.5282 24.1882 27.0752C23.6412 27.6222 23.3339 28.3641 23.3339 29.1376C23.3339 29.9112 23.6412 30.653 24.1882 31.2C24.7352 31.747 25.4771 32.0543 26.2506 32.0543ZM40.8339 37.8818C40.8339 38.6553 40.5266 39.3972 39.9797 39.9442C39.4327 40.4912 38.6908 40.7985 37.9173 40.7985C37.1437 40.7985 36.4019 40.4912 35.8549 39.9442C35.3079 39.3972 35.0006 38.6553 35.0006 37.8818C35.0006 37.1082 35.3079 36.3664 35.8549 35.8194C36.4019 35.2724 37.1437 34.9651 37.9173 34.9651C38.6908 34.9651 39.4327 35.2724 39.9797 35.8194C40.5266 36.3664 40.8339 37.1082 40.8339 37.8818ZM26.2506 49.5426C27.0241 49.5426 27.766 49.2353 28.313 48.6884C28.86 48.1414 29.1673 47.3995 29.1673 46.626C29.1673 45.8524 28.86 45.1105 28.313 44.5636C27.766 44.0166 27.0241 43.7093 26.2506 43.7093C25.4771 43.7093 24.7352 44.0166 24.1882 44.5636C23.6412 45.1105 23.3339 45.8524 23.3339 46.626C23.3339 47.3995 23.6412 48.1414 24.1882 48.6884C24.7352 49.2353 25.4771 49.5426 26.2506 49.5426ZM14.5839 13.5918C14.5839 9.22554 18.1714 5.41054 22.8089 5.86845C37.9098 7.36462 51.9001 14.4711 62.0148 25.7835C65.1356 29.263 64.1644 34.4285 60.6177 36.998C56.0035 40.3464 49.126 45.331 45.2089 48.1776C45.2031 49.4522 45.2031 50.2805 45.206 51.3626V53.1943C45.2064 53.9404 45.0433 54.6775 44.728 55.3537C44.4128 56.0299 43.9531 56.6288 43.3814 57.1082C42.8097 57.5876 42.1399 57.9358 41.419 58.1284C40.6982 58.3209 39.9439 58.3531 39.2093 58.2226C38.6143 60.6318 36.491 62.6764 33.5393 62.6764C31.4977 62.6764 29.8585 61.6993 28.8464 60.2993L24.9818 63.0905C20.6418 66.223 14.5694 63.1226 14.5723 57.7647L14.5839 13.5918ZM22.3802 10.223C20.6039 10.048 18.956 11.5151 18.956 13.5918V15.1085C26.2776 15.4164 33.4477 17.2928 39.9816 20.6108C46.5154 23.9288 52.2607 28.6111 56.8289 34.341L58.051 33.4543C59.7368 32.2293 59.9527 30.033 58.7569 28.7001C49.3711 18.2065 36.3905 11.6152 22.3802 10.2289M18.9473 57.7705C18.9469 58.1739 19.0581 58.5694 19.2685 58.9135C19.4789 59.2576 19.7803 59.5368 20.1395 59.7203C20.4987 59.9039 20.9016 59.9845 21.3037 59.9533C21.7058 59.9222 22.0915 59.7805 22.4181 59.5439L28.6248 55.0726C28.9514 54.8376 29.3365 54.6973 29.7377 54.667C30.1389 54.6368 30.5407 54.7177 30.8989 54.901C31.257 55.0843 31.5577 55.3629 31.7678 55.706C31.9779 56.0492 32.0893 56.4436 32.0898 56.846C32.0898 57.6335 32.6993 58.3043 33.5393 58.3043C33.7317 58.3062 33.9225 58.2699 34.1006 58.1973C34.2787 58.1248 34.4407 58.0176 34.5769 57.8818C34.7132 57.7461 34.8211 57.5846 34.8943 57.4068C34.9676 57.2289 35.0047 57.0383 35.0035 56.846V53.1972C35.0035 52.617 35.234 52.0606 35.6442 51.6504C36.0545 51.2402 36.6109 51.0097 37.191 51.0097C37.7712 51.0097 38.3276 51.2402 38.7378 51.6504C39.148 52.0606 39.3785 52.617 39.3785 53.1972C39.3785 53.6055 39.7023 53.9264 40.1018 53.9264C40.2952 53.9264 40.4807 53.8495 40.6174 53.7128C40.7542 53.5761 40.831 53.3906 40.831 53.1972V51.383C40.8281 50.0122 40.8252 49.0264 40.8456 47.0401C40.8483 46.6985 40.931 46.3623 41.087 46.0584C41.243 45.7546 41.468 45.4914 41.7439 45.2901C44.3748 43.3768 49.0239 40.0051 53.2823 36.9193C49.1237 31.7459 43.9119 27.5166 37.993 24.5124C32.0742 21.5082 25.5838 19.7979 18.9531 19.4951L18.9473 57.7705Z" fill="#00AACB"/>
</svg>

<svg xmlns="http://www.w3.org/2000/svg" width="70" height="70" fill="none" viewBox="0 0 70 70"><path fill="#00aacb" d="M26.25 32.054a2.917 2.917 0 1 0 0-5.833 2.917 2.917 0 0 0 0 5.833m14.584 5.828a2.917 2.917 0 1 1-5.834 0 2.917 2.917 0 0 1 5.834 0M26.25 49.542a2.917 2.917 0 1 0 0-5.834 2.917 2.917 0 0 0 0 5.835m-11.667-35.95c0-4.366 3.587-8.181 8.225-7.724a60.6 60.6 0 0 1 39.206 19.916c3.12 3.479 2.15 8.645-1.397 11.214-4.614 3.348-11.492 8.333-15.41 11.18a396 396 0 0 0-.002 3.185v1.831a5.103 5.103 0 0 1-5.997 5.029c-.595 2.409-2.718 4.453-5.67 4.453-2.041 0-3.68-.977-4.693-2.377l-3.864 2.791c-4.34 3.133-10.413.033-10.41-5.325zm7.796-3.369c-1.776-.175-3.424 1.292-3.424 3.369v1.516a51.2 51.2 0 0 1 37.873 19.233l1.222-.887c1.686-1.225 1.902-3.421.706-4.754A56.23 56.23 0 0 0 22.38 10.23m-3.433 47.54a2.187 2.187 0 0 0 3.471 1.773l6.207-4.471a2.187 2.187 0 0 1 3.465 1.773c0 .788.61 1.458 1.45 1.458a1.45 1.45 0 0 0 1.464-1.458v-3.649a2.188 2.188 0 0 1 4.375 0 .723.723 0 0 0 1.238.516.73.73 0 0 0 .214-.516v-1.814c-.003-1.37-.006-2.357.015-4.343a2.19 2.19 0 0 1 .898-1.75c2.63-1.913 7.28-5.285 11.538-8.37a46.78 46.78 0 0 0-34.329-17.425z"/></svg>
